icons/discussion-outdated-16.svg

<svg width="17" height="16" viewBox="0 0 17 16" fill="none" xmlns="http://www.w3.org/2000/svg">
<g clip-path="url(#clip0_8896_112330)">
<path fill-rule="evenodd" clip-rule="evenodd" d="M3.25 3.55469C3.11193 3.55469 3 3.66662 3 3.80469V9.53906C3 9.67713 3.11193 9.78906 3.25 9.78906H4.25C4.66421 9.78906 5 10.1248 5 10.5391V12.835L5.98255 11.8985C6.28238 11.6127 6.75712 11.6241 7.0429 11.924C7.32868 12.2238 7.31729 12.6985 7.01745 12.9843L5.97436 13.9785C5.70206 14.238 5.34033 14.3828 4.96417 14.3828C4.15553 14.3828 3.5 13.7273 3.5 12.9186V11.2891H3.25C2.2835 11.2891 1.5 10.5056 1.5 9.53906V3.80469C1.5 2.83819 2.2835 2.05469 3.25 2.05469H11.75C12.7165 2.05469 13.5 2.83819 13.5 3.80469V6C13.5 6.41421 13.1642 6.75 12.75 6.75C12.3358 6.75 12 6.41421 12 6V3.80469C12 3.66662 11.8881 3.55469 11.75 3.55469H3.25Z" fill="black"/>
<path fill-rule="evenodd" clip-rule="evenodd" d="M12.25 9C10.7312 9 9.5 10.2312 9.5 11.75C9.5 13.2688 10.7312 14.5 12.25 14.5C13.7688 14.5 15 13.2688 15 11.75C15 10.2312 13.7688 9 12.25 9ZM8 11.75C8 9.40279 9.90279 7.5 12.25 7.5C14.5972 7.5 16.5 9.40279 16.5 11.75C16.5 14.0972 14.5972 16 12.25 16C9.90279 16 8 14.0972 8 11.75Z" fill="black"/>
<path fill-rule="evenodd" clip-rule="evenodd" d="M12 9.75C12.4142 9.75 12.75 10.0858 12.75 10.5V11.4922L13.5285 11.8036C13.9131 11.9575 14.1002 12.394 13.9464 12.7785C13.7925 13.1631 13.356 13.3502 12.9715 13.1964L11.7215 12.6964C11.4367 12.5825 11.25 12.3067 11.25 12V10.5C11.25 10.0858 11.5858 9.75 12 9.75Z" fill="black"/>
</g>
<defs>
<clipPath id="clip0_8896_112330">
<rect width="16" height="16" fill="white" transform="translate(0.5)"/>
</clipPath>
</defs>
</svg>

<svg xmlns="http://www.w3.org/2000/svg" width="17" height="16" viewBox="0 0 17 16"><path d="M3.25 3.555a.25.25 0 0 0-.25.25v5.734c0 .138.112.25.25.25h1a.75.75 0 0 1 .75.75v2.296l.983-.936a.75.75 0 1 1 1.034 1.085l-1.043.995a1.466 1.466 0 0 1-2.474-1.06v-1.63h-.25a1.75 1.75 0 0 1-1.75-1.75V3.805c0-.967.783-1.75 1.75-1.75h8.5c.967 0 1.75.783 1.75 1.75V6A.75.75 0 0 1 12 6V3.805a.25.25 0 0 0-.25-.25Z"/><path d="M8 11.75a4.25 4.25 0 1 1 8.5 0 4.25 4.25 0 0 1-8.5 0ZM12.25 9a2.75 2.75 0 1 0 0 5.5 2.75 2.75 0 0 0 0-5.5Z"/><path d="M12 9.75a.75.75 0 0 1 .75.75v.992l.778.312a.749.749 0 1 1-.556 1.392l-1.25-.5A.748.748 0 0 1 11.25 12v-1.5a.75.75 0 0 1 .75-.75Z"/></svg>
